src/assets/top/accessories/Prescription02.svg

<svg width='280px' height='280px' viewBox='0 0 280 280' version='1.1' xmlns='http://www.w3.org/2000/svg'>
      <g
        id='Top/_Resources/Prescription-02'
        fill='none'
        transform='translate(62.000000, 85.000000)'
        strokeWidth='1'>
        <defs>
          <filter
            x='-0.8%'
            y='-2.4%'
            width='101.5%'
            height='109.8%'
            filterUnits='objectBoundingBox'
            id='filter1'>
            <feOffset
              dx='0'
              dy='2'
              in='SourceAlpha'
              result='shadowOffsetOuter1'
            />
            <feColorMatrix
              values='0 0 0 0 0   0 0 0 0 0   0 0 0 0 0  0 0 0 0.2 0'
              type='matrix'
              in='shadowOffsetOuter1'
              result='shadowMatrixOuter1'
            />
            <feMerge>
              <feMergeNode in='shadowMatrixOuter1' />
              <feMergeNode in='SourceGraphic' />
            </feMerge>
          </filter>
        </defs>
        <g
          id='Wayfarers'
          filter='url("#filter1")'
          transform='translate(6.000000, 7.000000)'
          fill='#252C2F'>
          <path
            d='M34,41 L31.2421498,41 C17.3147125,41 9,33.3359286 9,20.5 C9,10.127 10.8170058,0 32.5299306,0 L35.4700694,0 C57.1829942,0 59,10.127 59,20.5 C59,32.5686429 48.7212748,41 34,41 Z M32.3853606,6 C13,6 13,12.8410159 13,21.5015498 C13,28.5719428 16.116254,37 30.9709365,37 L34,37 C46.3649085,37 55,30.6270373 55,21.5015498 C55,12.8410159 55,6 35.6146394,6 L32.3853606,6 Z'
            id='Left'
            fillRule='nonzero'
          />
          <path
            d='M96,41 L93.2421498,41 C79.3147125,41 71,33.3359286 71,20.5 C71,10.127 72.8170058,0 94.5299306,0 L97.4700694,0 C119.182994,0 121,10.127 121,20.5 C121,32.5686429 110.721275,41 96,41 Z M94.3853606,6 C75,6 75,12.8410159 75,21.5015498 C75,28.5719428 78.1194833,37 92.9709365,37 L96,37 C108.364909,37 117,30.6270373 117,21.5015498 C117,12.8410159 117,6 97.6146394,6 L94.3853606,6 Z'
            id='Right'
            fillRule='nonzero'
          />
          <path
            d='M2.95454545,5.77156439 C3.64590909,5.09629136 11.2095455,0 32.5,0 C50.3513636,0 54.1302273,1.85267217 59.8502273,4.6518809 L60.2689233,4.85850899 C60.6666014,4.99901896 62.7002447,5.68982981 65.0790606,5.76579519 C67.2462948,5.67278567 69.1000195,5.08540191 69.641698,4.89719767 C76.1703915,1.7220864 82.5610971,0 97.5,0 C118.790455,0 126.354091,5.09629136 127.045455,5.77156439 C128.679318,5.77156439 130,7.06150904 130,8.65734659 L130,11.5431288 C130,13.1389663 128.679318,14.428911 127.045455,14.428911 C127.045455,14.428911 120.143997,14.428911 120.143997,17.3146932 C120.143997,20.2004754 118.181818,13.1389663 118.181818,11.5431288 L118.181818,8.73240251 C114.578575,7.35340151 108.128411,4.78617535 97.5,4.78617535 C85.6584651,4.78617535 79.7610984,6.88602813 74.7022935,8.97112368 L74.7588636,9.10752861 L74.7563667,11.0937608 L72.5391666,16.4436339 L69.8004908,15.3608351 C69.5558969,15.2641292 69.0281396,15.090392 68.2963505,14.9099044 C66.256272,14.4067419 64.1589087,14.253569 62.3040836,14.6343084 C61.6235903,14.7739931 60.9922286,14.9836085 60.4128127,15.266732 L57.7704824,16.5578701 L55.1266751,11.3962031 L55.2440909,9.10175705 L55.3248203,8.90683855 C50.9620526,6.87386374 46.9392639,4.78617535 32.5,4.78617535 C21.8721459,4.78617535 15.422131,7.3524397 11.8181818,8.7314671 L11.8181818,11.5431288 C11.8181818,13.1389663 8.86363636,20.2004754 8.86363636,17.3146932 C8.86363636,14.428911 2.95454545,14.428911 2.95454545,14.428911 C1.32363636,14.428911 0,13.1389663 0,11.5431288 L0,8.65734659 C0,7.06150904 1.32363636,5.77156439 2.95454545,5.77156439 Z'
            id='Stuff'
            fillRule='nonzero'
          />
        </g>
      </g>
</svg>

<svg width="280" height="280" xmlns="http://www.w3.org/2000/svg"><g fill="none" transform="translate(62 85)"><defs><filter x="-.8%" y="-2.4%" width="101.5%" height="109.8%" filterUnits="objectBoundingBox" id="a"><feOffset dy="2" in="SourceAlpha" result="shadowOffsetOuter1"/><feColorMatrix values="0 0 0 0 0 0 0 0 0 0 0 0 0 0 0 0 0 0 0.2 0" in="shadowOffsetOuter1" result="shadowMatrixOuter1"/><feMerge><feMergeNode in="shadowMatrixOuter1"/><feMergeNode in="SourceGraphic"/></feMerge></filter></defs><g filter="url(&quot;#a&quot;)" transform="translate(6 7)" fill="#252C2F"><path d="M34 41h-2.758C17.315 41 9 33.336 9 20.5 9 10.127 10.817 0 32.53 0h2.94C57.183 0 59 10.127 59 20.5 59 32.569 48.721 41 34 41zM32.385 6C13 6 13 12.841 13 21.502 13 28.572 16.116 37 30.97 37H34c12.365 0 21-6.373 21-15.498C55 12.84 55 6 35.615 6h-3.23zM96 41h-2.758C79.315 41 71 33.336 71 20.5 71 10.127 72.817 0 94.53 0h2.94C119.183 0 121 10.127 121 20.5 121 32.569 110.721 41 96 41zM94.385 6C75 6 75 12.841 75 21.502 75 28.572 78.12 37 92.97 37H96c12.365 0 21-6.373 21-15.498C117 12.84 117 6 97.615 6h-3.23z"/><path d="M2.955 5.772C3.645 5.096 11.21 0 32.5 0c17.851 0 21.63 1.853 27.35 4.652l.419.207c.398.14 2.431.83 4.81.907a16.998 16.998 0 004.563-.869C76.17 1.722 82.562 0 97.5 0c21.29 0 28.854 5.096 29.545 5.772 1.634 0 2.955 1.29 2.955 2.885v2.886c0 1.596-1.32 2.886-2.955 2.886 0 0-6.901 0-6.901 2.886 0 2.885-1.962-4.176-1.962-5.772v-2.81c-3.603-1.38-10.054-3.947-20.682-3.947-11.842 0-17.739 2.1-22.798 4.185l.057.137-.003 1.986-2.217 5.35L69.8 15.36c-.244-.097-.772-.27-1.504-.451-2.04-.503-4.137-.656-5.992-.276-.68.14-1.312.35-1.891.633l-2.643 1.29-2.643-5.16.117-2.295.08-.195c-4.362-2.033-8.385-4.12-22.824-4.12-10.628 0-17.078 2.565-20.682 3.944v2.812c0 1.596-2.954 8.657-2.954 5.772 0-2.886-5.91-2.886-5.91-2.886-1.63 0-2.954-1.29-2.954-2.886V8.657c0-1.595 1.324-2.885 2.955-2.885z"/></g></g></svg>
